src/lib/packages/icons/src/assets/filled/bookmarks-times.svg

<svg width="24" height="24" viewBox="0 0 24 24" fill="none" xmlns="http://www.w3.org/2000/svg">
<path d="M19.9971 18L19.99 17.986V18L17.6411 16.656C17.5471 16.603 17.49 16.503 17.49 16.396C17.49 16.396 17.49 8.50495 17.49 8.47095C17.449 5.98395 15.9439 4.501 13.4299 4.5H8.21704C8.04304 4.5 7.9911 4.34805 8.0061 4.17505C8.1311 2.73105 8.98506 2 10.5601 2H17.4199H17.427C19.137 2 19.9971 2.85995 19.9971 4.56995V18ZM16 8.57104V22L10 18.572L4 22V8.57104C4 6.85705 4.85704 6 6.57104 6H13.428C15.143 6 16 6.85705 16 8.57104ZM11.061 12.5L12.031 11.53C12.324 11.237 12.324 10.762 12.031 10.469C11.738 10.176 11.263 10.176 10.97 10.469L10 11.439L9.03003 10.469C8.73703 10.176 8.26199 10.176 7.96899 10.469C7.67599 10.762 7.67599 11.237 7.96899 11.53L8.93896 12.5L7.96899 13.47C7.67599 13.763 7.67599 14.238 7.96899 14.531C8.11499 14.677 8.30702 14.751 8.49902 14.751C8.69102 14.751 8.88305 14.678 9.02905 14.531L9.99902 13.561L10.969 14.531C11.115 14.677 11.307 14.751 11.499 14.751C11.691 14.751 11.8831 14.678 12.0291 14.531C12.3221 14.238 12.3221 13.763 12.0291 13.47L11.061 12.5Z" fill="currentColor"/>
</svg>

<svg xmlns="http://www.w3.org/2000/svg" width="24" height="24" fill="none"><path fill="currentColor" d="m19.997 18-.007-.014V18l-2.349-1.344a.298.298 0 0 1-.151-.26V8.471c-.041-2.487-1.546-3.97-4.06-3.971H8.217c-.174 0-.226-.152-.21-.325C8.13 2.731 8.984 2 10.56 2h6.867c1.71 0 2.57.86 2.57 2.57V18ZM16 8.571V22l-6-3.428L4 22V8.571C4 6.857 4.857 6 6.571 6h6.857C15.143 6 16 6.857 16 8.571ZM11.061 12.5l.97-.97a.75.75 0 1 0-1.061-1.061l-.97.97-.97-.97a.75.75 0 0 0-1.061 1.061l.97.97-.97.97a.75.75 0 0 0 1.06 1.061l.97-.97.97.97a.748.748 0 0 0 1.06 0 .75.75 0 0 0 0-1.061l-.968-.97Z"/></svg>
